X:1
T:Sonata I Largo: Musical Offering (A = 415 Hz)
T:BWV 1079
T:J. S. Bach
%%score { 1 | 2 } { 3 | 4 }
L:1/8
Q:1/4=48
M:3/4
K:D
V:1 treble nm="Harp"
V:2 treble 
V:3 treble nm="Harp"
V:4 bass 
V:1
"^Largo" z6 | z6 | B>g e/4^d/4e/4d/4e/4d/4e/4d/4 e/4d/4e/4d/4e | e3 d/c/{f} ed/c/ | %4
 de/4d/4c/4d/4 e/4d/4e/4d/4e/4d/4e/4d/4 e/4d/4e/4d/4c | c/^E/F z ^A B/4A/4B/4A/4B/4A/4^G/4A/4 | %6
 B/C/D/F/ B/d/d/c/ c/B/B/^A/ | ^A4 z2 | B>a g/4f/4g/4f/4g/4f/4g/4f/4 g/4f/4g/4f/4g | g6- | %10
 g/A/c/e/ g/b/b/a/ a/g/g/f/ | f6- | f/b/^d/e/ z/ g/^A/B/ z/ e/F/G/ | Gc eg b/g/f/e/ | %14
 a>B d/4c/4d/4c/4d/4c/4d/4c/4 d/4c/4d/4c/4d | d6 | z6 | z6 | %18
 B>g e/4^d/4e/4d/4e/4d/4e/4d/4 e/4d/4e/4d/4e | e3 d/c/{f} ed/c/ | %20
 de/4d/4c/4d/4 e/4d/4e/4d/4e/4d/4e/4d/4 e/4d/4e/4d/4c | c/^E/F z ^A B/4A/4B/4A/4B/4A/4^G/4A/4 | %22
 B/C/D/F/ B/d/d/c/ c/B/B/^A/ | ^A4 z2 | B>a g/4f/4g/4f/4g/4f/4g/4f/4 g/4f/4g/4f/4g | g6- | %26
 g/A/c/e/ g/b/b/a/ a/g/g/f/ | f6- | f/b/^d/e/ z/ g/^A/B/ z/ e/F/G/ | Gc eg b/g/f/e/ | %30
 a>B d/4c/4d/4c/4d/4c/4d/4c/4 d/4c/4d/4c/4d | d6 | f>A B/4=c/4d/4c/4d/4c/4d/4c/4 d/4c/4d/4c/4[BB] | %33
 B/C/D/F/ G/B/d/c/ d2- | d/b/c/d/ z/ f/^G/A/ z/ d/E/=F/ | Ed cg ^AB | %36
 ^AF z e d/4c/4d/4c/4d/4c/4B/4c/4 | d6- | d c2 B/A/ ^G/F/^E/F/ | ^Ed c^e f^g |{B} A/^G/F z2 z2 | %41
 f>F ^G/4A/4B/4A/4B/4A/4B/4A/4 B/4A/4B/4A/4G | ^G/A/G/F/ F/G/F/^E/ E>^e | %43
 f>F A2- A/4^G/4A/4G/4A/4G/4F/ | F2 c4- | c/F/e/d/ z/ ^A/g/f/ z/ c/b/^a/ | %46
 b/d'/^e/f/ z/ b/c/d/ z/ f/^A/B/ | B/a/^d/e/ =c'a dA | %48
 G>g e/4^d/4e/4d/4e/4d/4e/4d/4 e/4d/4e/4d/4e | e3 d/c/{f} ed/c/ | d/c/d/f/ e/g/g/f/ f/e/e/f/ | %51
 f/^e/f/b/ =e/4d/4e/4d/4e/4d/4e/4d/4 e/4d/4e/4d/4e/4d/4e/4d/4 | c/F/^A/c/ e/g/f/e/ c'/g/f/e/ | %53
 d>a{e} ^d2 z f- | f/E/G/B/ d/f/e/d/ b/f/e/d/ | c>g{d} c4 | c>e{B} ^A3 g | %57
 f>B B2- B/4^A/4B/4A/4B/4A/4B/ | B2 z B =c/4B/4c/4B/4c/4B/4A/4B/4 | %59
 =c/A/^d/f/ a/=c'/c'/b/ b/a/a/g/ | gG =ce g=c' | ^a/F/d/c/ z/ ^A/g/f/ z/ c/b/a/ | %62
 b>e d/4c/4d/4c/4d/4c/4d/4c/4 d/4c/4d/4c/4B | B6 | f>A B/4=c/4d/4c/4d/4c/4d/4c/4 d/4c/4d/4c/4[BB] | %65
 B/C/D/F/ G/B/d/c/ d2- | d/b/c/d/ z/ f/^G/A/ z/ d/E/=F/ | Ed cg ^AB | %68
 ^AF z e d/4c/4d/4c/4d/4c/4B/4c/4 | d6- | d c2 B/A/ ^G/F/^E/F/ | ^Ed c^e f^g |{B} A/^G/F z2 z2 | %73
 f>F ^G/4A/4B/4A/4B/4A/4B/4A/4 B/4A/4B/4A/4G | ^G/A/G/F/ F/G/F/^E/ E-E/^e/ | %75
 f>F A2- A/4^G/4A/4G/4A/4G/4F/ | F2 c4- | c/F/e/d/ z/ ^A/g/f/ z/ c/b/^a/ | %78
 b/d'/^e/f/ z/ b/c/d/ z/ f/^A/B/ | B/a/^d/e/ =c'a dA | %80
 G>g e/4^d/4e/4d/4e/4d/4e/4d/4 e/4d/4e/4d/4e | e3 d/c/{f} ed/c/ | d/c/d/f/ e/g/g/f/ f/e/e/f/ | %83
 f/^e/f/b/ =e/4d/4e/4d/4e/4d/4e/4d/4 e/4d/4e/4d/4e/4d/4e/4d/4 | c/F/^A/c/ e/g/f/e/ c'/g/f/e/ | %85
 d>a{e} ^d2 z f- | f/E/G/B/ d/f/e/d/ b/f/e/d/ | c>g{d} c4 | c>e{B} ^A3 g | %89
 f>B B2- B/4^A/4B/4A/4B/4A/4B/ | B2 z B =c/4B/4c/4B/4c/4B/4A/4B/4 | %91
 =c/A/^d/f/ a/=c'/c'/b/ b/a/a/g/ | gG =ce g=c' | ^a/F/d/c/ z/ ^A/g/f/ z/ c/b/a/ | %94
 b>e d/4c/4d/4c/4d/4c/4d/4c/4 d/4c/4d/4c/4B | B6 |] %96
V:2
 F>d B/4^A/4B/4A/4B/4A/4B/4A/4 B/4A/4B/4A/4[BB] | B3 A/G/{B} AG/F/ | G/F/G/B/ A/=c/c/B/ B/A/A/B/ | %3
 B/^A/B/d/ c4- | c-c/4B/4^A/4B/4 c/4B/4c/4B/4c/4B/4c/4B/4 c/4B/4c/4B/4A | %5
 ^A/F/A/c/ e/g/g/f/ f/e/e/d/ | d/^A/B z ^E F/4E/4F/4E/4F/4E/4^D/4E/4 | F4 z2 | z2 z4 | %9
 E>d c/4B/4c/4B/4c/4B/4c/4B/4 c/4B/4c/4B/4c | c6- | c/D/F/A/ =c/e/e/d/ d/c/c/B/ | BB, EG Bd | %13
 c/A,/F/E/ z/ C/B/A/ z/ E/d/c/ | d>G F/4E/4F/4E/4F/4E/4F/4E/4 F/4E/4F/4E/4D | D6 | %16
 F>d B/4^A/4B/4A/4B/4A/4B/4A/4 B/4A/4B/4A/4[BB] | B3 A/G/{B} AG/F/ | G/F/G/B/ A/=c/c/B/ B/A/A/B/ | %19
 B/^A/B/d/ c4- | c-c/4B/4^A/4B/4 c/4B/4c/4B/4c/4B/4c/4B/4 c/4B/4c/4B/4A | %21
 ^A/F/A/c/ e/g/g/f/ f/e/e/d/ | d/^A/B z ^E F/4E/4F/4E/4F/4E/4^D/4E/4 | F4 z2 | z2 z4 | %25
 E>d c/4B/4c/4B/4c/4B/4c/4B/4 c/4B/4c/4B/4c | c6- | c/D/F/A/ =c/e/e/d/ d/c/c/B/ | BB, EG Bd | %29
 c/A,/F/E/ z/ C/B/A/ z/ E/d/c/ | d>G F/4E/4F/4E/4F/4E/4F/4E/4 F/4E/4F/4E/4D | D6 | z6 | z6 | %34
 ^g>B c/4d/4e/4d/4e/4d/4e/4d/4 e/4d/4e/4d/4[cc] | c/^D/E/^G/ A/c/e/^d/ e2- | %36
 e/c'/^d/e/ z/ g/^A/B/ z/ e/F/G/ | F2 z B F/4^E/4F/4E/4F/4E/4^D/4E/4 | [FF]3 F, B,/A,/^G,/A,/ | %39
 ^G,2 z ^g ab | c'>c d/4e/4f/4e/4f/4e/4f/4e/4 f/4e/4f/4e/4d | d/e/d/c/ c/d/c/B/ B2- | B>D D2 C>d | %43
 c-c/a/ f2- f/4^e/4f/4e/4f/4e/4f/ | f/a/^B/c/ z/ f/^G/A/ z/ c/^E/F/ | F/c/^A/B/ ge AE | %46
{E} DC/B,/ F4- | F/B,/A/G/ z/ ^D/=c/B/ z/ F/e/^d/ | e2 z2 z2 | z6 | %50
 F>d B/4^A/4B/4A/4B/4A/4B/4A/4 B/4A/4B/4A/4B | B3 ^A/^G/{c} BA/G/ | ^A2 z4 | %53
 z/ B,/D/F/ A/=c/B/A/ f/c/B/A/ | G>d{A} ^G2 z B- | B/A,/C/E/ G/B/A/G/ e/B/A/G/ | F>G{D} C3 ^A | %57
 B>G D2- D/4C/4D/4C/4D/4C/4B,/ | B,/D/F/B/ e/g/g/f/ f/e/e/^d/ | ^d2 z ^D E/4D/4E/4D/4E/4D/4C/4D/4 | %60
 E/g/B/^B/ z/ e/F/G/ z/ B/^D/E/ | E^A ce g/e/d/c/ | f>^G B/4^A/4B/4A/4B/4A/4B/4A/4 B/4A/4B/4A/4B | %63
 B6 | z6 | z6 | ^g>B c/4d/4e/4d/4e/4d/4e/4d/4 e/4d/4e/4d/4[cc] | c/^D/E/^G/ A/c/e/^d/ e2- | %68
 e/c'/^d/e/ z/ g/^A/B/ z/ e/F/G/ | F2 z B F/4^E/4F/4E/4F/4E/4^D/4E/4 | [FF]3 F, B,/A,/^G,/A,/ | %71
 ^G,2 z ^g ab | c'>c d/4e/4f/4e/4f/4e/4f/4e/4 f/4e/4f/4e/4d | d/e/d/c/ c/d/c/B/ B2- | B>D D2 C>d | %75
 c-c/a/ f2- f/4^e/4f/4e/4f/4e/4f/ | f/a/^B/c/ z/ f/^G/A/ z/ c/^E/F/ | F/c/^A/B/ ge AE | %78
{E} DC/B,/ F4- | F/B,/A/G/ z/ ^D/=c/B/ z/ F/e/^d/ | e2 z2 z2 | z6 | %82
 F>d B/4^A/4B/4A/4B/4A/4B/4A/4 B/4A/4B/4A/4B | B3 ^A/^G/{c} BA/G/ | ^A2 z4 | %85
 z/ B,/D/F/ A/=c/B/A/ f/c/B/A/ | G>d{A} ^G2 z B- | B/A,/C/E/ G/B/A/G/ e/B/A/G/ | F>G{D} C3 ^A | %89
 B>G D2- D/4C/4D/4C/4D/4C/4B,/ | B,/D/F/B/ e/g/g/f/ f/e/e/^d/ | ^d2 z ^D E/4D/4E/4D/4E/4D/4C/4D/4 | %92
 E/g/B/^B/ z/ e/F/G/ z/ B/^D/E/ | E^A ce g/e/d/c/ | f>^G B/4^A/4B/4A/4B/4A/4B/4A/4 B/4A/4B/4A/4B | %95
 B6 |] %96
V:3
 [DFB]2 [EF^A]4 | [DFB]2 [B,FB]2 [FAB]2 | [EGB]2 [^DAB]4 | [EGB]2 [EFc]4 | [DFB]2 [D^GB]3 [CF^A] | %5
 [CF^A]2 z2 [CFA]2 | [DFB]2 z2 [C^E^GB]2 | [CF^A]2 [CFA]4 | [B,FB]2 [^DFB]4 | [EGB]4 [EGB]2 | %10
 [EGc]6 | [DFc]2 [DF=c]4 | [DFB]2 [B,EB]2 z [DGB] | [EGc]4 z [EAc] | [FAd][FBd] [EAc]4 | %15
 [FAd]4 z2 | [DFB]2 [EF^A]4 | [DFB]2 [B,FB]2 [FAB]2 | [EGB]2 [^DAB]4 | [EGB]2 [EFc]4 | %20
 [DFB]2 [D^GB]3 [CF^A] | [CF^A]2 z2 [CFA]2 | [DFB]2 z2 [C^E^GB]2 | [CF^A]2 [CFA]4 | %24
 [B,FB]2 [^DFB]4 | [EGB]4 [EGB]2 | [EGc]6 | [DFc]2 [DF=c]4 | [DFB]2 [B,EB]2 z [DGB] | %29
 [EGc]4 z [EAc] | [FAd][FBd] [EAc]4 | [FAd]4 z2 | [FAd]2 [EG=c]2 [DAc]2 | [DGB]4 [DAd]2 | %34
 [E^Gd]2 [DAd]2 [DEB]2 | [CEA]2 [EAc]2 [EBe]2 | [F^Ae]4 [Fce]2 | [FBd]4 [^EBd]2 | %38
 [FAc]2 [DFc][DFB] [DF^G]2 | [C^E^G]4 [CFA][CEG] | [CFA][FAc] [EBe]2 [EFc]2 | %41
 [DFB]2 [CFA]2 [B,DA]2 | [B,D^G]2 [B,DF]2 [^G,C^E]2 | [F,CF]2 [CFA]2 [C^E^G]2 | [CFA]4 [Acf]2 | %45
 [Fcf][FBf] [G^Ae]2 [FAe]2 | [FBd]6 | [FBd][EBe] [A=c^d]2 [ABd]2 | [GBe]2 [AB^d]4 | [GBe]2 [Fce]4 | %50
 [FBd]2 [F^Ae]4 | [FBd]2 [^GBd]2 [DGB]2 | [CF^A]2 [EFA]2 [Fce]2 | [DFB]2 [^DAB]2 [FAB]2 | %54
 [GB][EGB] [EBd]4 | [EBc][EAc] [GAe]4 | [Fce]2 [F^Ac]4 | [FBd][GBd] [FBd]2 [F^Ac]2 | [FB]2 [EGB]4 | %59
 [^DA=c]2 [DAB]4 | [EGB]2 [EG^B]2 z [B,F=B] | [CF^A]2 [CFA]2 z [CFA] | [DFB][D^GB] [CF^A]4 | %63
 [DFB]4 z2 | [FAd]2 [EG=c]2 [DAc]2 | [DGB]4 [DAd]2 | [E^Gd]2 [DAd]2 [DEB]2 | [CEA]2 [EAc]2 [EBe]2 | %68
 [F^Ae]4 [Fce]2 | [FBd]4 [^EBd]2 | [FAc]2 [DFc][DFB] [DF^G]2 | [C^E^G]4 [CFA][CEG] | %72
 [CFA][FAc] [EBe]2 [EFc]2 | [DFB]2 [CFA]2 [B,DA]2 | [B,D^G]2 [B,DF]2 [^G,C^E]2 | %75
 [F,CF]2 [CFA]2 [C^E^G]2 | [CFA]4 [Acf]2 | [Fcf][FBf] [G^Ae]2 [FAe]2 | [FBd]6 | %79
 [FBd][EBe] [A=c^d]2 [ABd]2 | [GBe]2 [AB^d]4 | [GBe]2 [Fce]4 | [FBd]2 [F^Ae]4 | %83
 [FBd]2 [^GBd]2 [DGB]2 | [CF^A]2 [EFA]2 [Fce]2 | [DFB]2 [^DAB]2 [FAB]2 | [GB][EGB] [EBd]4 | %87
 [EBc][EAc] [GAe]4 | [Fce]2 [F^Ac]4 | [FBd][GBd] [FBd]2 [F^Ac]2 | [FB]2 [EGB]4 | [^DA=c]2 [DAB]4 | %92
 [EGB]2 [EG^B]2 z [B,F=B] | [CF^A]2 [CFA]2 z [CFA] | [DFB][D^GB] [CF^A]4 | [DFB]6 |] %96
V:4
 B,,B,, C,C, C,C, | D,D, ^D,D, D,D, | E,E, F,F, F,F, | G,G, ^A,,A,, A,,A,, | B,,>B,{F,} E,3 F, | %5
 F,2 z F,, F,,F,, | F,,2 z F, F,F, | F,/F,,/^A,,/C,/ E,/G,/G,/F,/ F,/E,/E,/^D,/ | %8
 ^D,/B,,/D,/F,/ A,/=C/C/B,/ B,/A,/G,/F,/ | E,/E,,/G,,/B,,/ D,/F,/F,/E,/ E,/D,/C,/B,,/ | %10
 A,,A,, A,,A,, A,,A,, | D,D, D,D, D,D, | G,,2 G,2 z B,, | A,,2 A,2 z G, | F,G, A,A, A,,A,, | %15
 D,,D, F,E, D,C, | B,,B,, C,C, C,C, | D,D, ^D,D, D,D, | E,E, F,F, F,F, | G,G, ^A,,A,, A,,A,, | %20
 B,,>B,{F,} E,3 F, | F,2 z F,, F,,F,, | F,,2 z F, F,F, | %23
 F,/F,,/^A,,/C,/ E,/G,/G,/F,/ F,/E,/E,/^D,/ | ^D,/B,,/D,/F,/ A,/=C/C/B,/ B,/A,/G,/F,/ | %25
 E,/E,,/G,,/B,,/ D,/F,/F,/E,/ E,/D,/C,/B,,/ | A,,A,, A,,A,, A,,A,, | D,D, D,D, D,D, | %28
 G,,2 G,2 z B,, | A,,2 A,2 z G, | F,G, A,A, A,,A,, | D,,D, F,E, D,C, | D,D, E,E, F,F, | %33
 G,G, G,G, =F,F, | E,E, F,F, ^G,G, | A,A, A,A, G,G, | F,F, C,C, ^A,,A,, | B,,B,, A,,A,, ^G,,G,, | %38
 A,,A,, D,D, B,,B,, | C,/C,,/^E,,/^G,,/ B,,/D,/D,/C,/ C,/B,,/A,,/G,,/ | F,,F,, ^G,,G,, ^A,,A,, | %41
 B,,B,, C,C, D,D, | ^E,,^G,, B,,A,, B,,G,, | A,,F,, C,C, C,,C,, | F,,F,, A,,C, A,,F,, | %45
 D,,D, C,C, F,F, | B,,B,, D,F, D,B,, | G,,G, F,F, B,B, | E,E, F,F, F,F, | G,G, ^A,,A,, A,,A,, | %50
 B,,B,, C,C, C,C, | D,D, ^E,,E,, E,,E,, | F,,F, C,^A,, F,,A,, | B,,B, F,^D, B,,D, | %54
 E,,E, B,,^G,, E,,G,, | A,,A, E,C, A,,C, | ^A,,/F,,/A,,/C,/ E,/G,/G,/F,/ F,/E,/E,/D,/ | %57
 D,E, F,F, F,,F,, | G,,G,, G,,G,, G,,G,, | F,,F,, F,,F,, F,,F,, | E,,2 E,2 z G,, | F,,2 F,2 z E, | %62
 D,E, F,F, F,,F,, | B,,,/B,,/D,/F,/ B,/D/C/B,/ A,/G,/F,/E,/ | D,D, E,E, F,F, | G,G, G,G, =F,F, | %66
 E,E, F,F, ^G,G, | A,A, A,A, G,G, | F,F, C,C, ^A,,A,, | B,,B,, A,,A,, ^G,,G,, | %70
 A,,A,, D,D, B,,B,, | C,/C,,/^E,,/^G,,/ B,,/D,/D,/C,/ C,/B,,/A,,/G,,/ | F,,F,, ^G,,G,, ^A,,A,, | %73
 B,,B,, C,C, D,D, | ^E,,^G,, B,,A,, B,,G,, | A,,F,, C,C, C,,C,, | F,,F,, A,,C, A,,F,, | %77
 D,,D, C,C, F,F, | B,,B,, D,F, D,B,, | G,,G, F,F, B,B, | E,E, F,F, F,F, | G,G, ^A,,A,, A,,A,, | %82
 B,,B,, C,C, C,C, | D,D, ^E,,E,, E,,E,, | F,,F, C,^A,, F,,A,, | B,,B, F,^D, B,,D, | %86
 E,,E, B,,^G,, E,,G,, | A,,A, E,C, A,,C, | ^A,,/F,,/A,,/C,/ E,/G,/G,/F,/ F,/E,/E,/D,/ | %89
 D,E, F,F, F,,F,, | G,,G,, G,,G,, G,,G,, | F,,F,, F,,F,, F,,F,, | E,,2 E,2 z G,, | F,,2 F,2 z E, | %94
 D,E, F,F, F,,F,, | B,,,6 |] %96

